X: 35873
T: Sandpiper, The
R: jig
M: 6/8
K: Amixolydian
AA|:aAg AfA|efg agf|edc B2d|e3 eAA|
aAg AfA|efg agf|edc c2G|A3 A2A:|
|:Ace ede|gdd edc|Acd edc|g3 g3|
Ace edc|acc edc|Bcd eBe|1 A3 A2A:|2 A3 A2f||
|:g3 geg|ged ede|eag edB|d3 d2f|
g3 gea|b2g ede|ege edB|1 A3 A2f:|2 A3 A2A||

